; generated by PrusaSlicer 2.6.1+MacOS-arm64 on 2023-10-10 at 20:51:39 UTC


;
;
; 

; external perimeters extrusion width = 0.60mm
; perimeters extrusion width = 0.50mm
; infill extrusion width = 0.50mm
; solid infill extrusion width = 0.50mm
; top infill extrusion width = 0.45mm
; support material extrusion width = 0.38mm
; first layer extrusion width = 0.42mm

M73 P0 R31
M73 Q0 S31
M201 X1000 Y1000 Z200 E5000 ; sets maximum accelerations, mm/sec^2
M203 X200 Y200 Z12 E120 ; sets maximum feedrates, mm / sec
M204 S1250 T1250 ; sets acceleration (S) and retract acceleration (R), mm/sec^2
M205 X8.00 Y8.00 Z0.40 E4.50 ; sets the jerk limits, mm/sec
M205 S0 T0 ; sets the minimum extruding and travel feed rate, mm/sec
;TYPE:Custom
M862.3 P "MK3S" ; printer model check
M862.1 P0.4 ; nozzle diameter check
M115 U3.13.1 ; tell printer latest fw version
G90 ; use absolute coordinates
M83 ; extruder relative mode
M104 S215 ; set extruder temp
M140 S60 ; set bed temp
M190 S60 ; wait for bed temp
M109 S215 ; wait for extruder temp
G28 W ; home all without mesh bed level
G80 ; mesh bed leveling

G1 Z0.2 F720
G1 Y-3 F1000 ; go outside print area
G92 E0
G1 X60 E9 F1000 ; intro line
G1 X100 E12.5 F1000 ; intro line

G92 E0
M221 S95

; Don't change E values below. Excessive value can damage the printer.

M907 E538 ; set extruder motor current
G21 ; set units to millimeters
G90 ; use absolute coordinates
M83 ; use relative distances for extrusion
M900 K0.05 ; Filament gcode LA 1.5
M900 K30 ; Filament gcode LA 1.0

M107
;LAYER_CHANGE
;Z:0.2
;HEIGHT:0.2
;BEFORE_LAYER_CHANGE
G92 E0.0
;0.2


G1 E-.8 F2100
G1 Z.4 F720
;AFTER_LAYER_CHANGE
;0.2
G1 X103.048 Y91.319 F10800
G1 Z.2 F720
G1 E.8 F2100
M204 S800
;TYPE:Skirt/Brim
;WIDTH:0.42
G1 F1200
G1 X104.069 Y90.605 E.03906
G1 X120.167 Y84.115 E.54422
G1 X121.46 Y83.752 E.04211
G1 X122.956 Y83.463 E.04777
G1 X124.194 Y83.323 E.03906
G1 X126.31 Y83.286 E.06636
G1 X127.924 Y83.428 E.0508
G1 X130.363 Y83.935 E.07811
G1 X132.617 Y84.739 E.07503
G1 X134.907 Y85.945 E.08115
G1 X136.847 Y87.346 E.07503
G1 X138.646 Y89.069 E.0781
G1 X140.184 Y91.028 E.07809
G1 X141.472 Y93.272 E.08113
G1 X142.362 Y95.494 E.07505
G1 X142.959 Y97.912 E.07809
G1 X143.209 Y100.39 E.07809
G1 X143.109 Y102.879 E.0781
G1 X142.659 Y105.328 E.07807
G1 X141.869 Y107.69 E.07809
G1 X140.754 Y109.918 E.07812
G1 X139.276 Y112.041 E.08111
G1 X137.777 Y113.67 E.06941
G1 X135.94 Y115.205 E.07506
G1 X134.587 Y116.096 E.05079
G1 X132.706 Y117.067 E.06637
G1 X131.196 Y117.654 E.0508
G1 X129.057 Y118.228 E.06944
G1 X126.684 Y118.541 E.07505
G1 X125.065 Y118.569 E.05077
G1 X122.586 Y118.324 E.07811
G1 X120.525 Y117.842 E.06636
G1 X119.344 Y117.445 E.03907
G1 X104.069 Y111.243 E.51691
G1 X103.159 Y110.639 E.03425
G1 X103.048 Y110.529 E.0049
G1 X102.242 Y108.581 E.0661
G1 X102.242 Y93.267 E.48016
G1 X103.025 Y91.375 E.0642
M204 S1000
G1 X103.315 Y91.586 F10800
M204 S800
G1 F1200
G1 X104.211 Y90.954 E.03438
G1 X120.291 Y84.471 E.54361
G1 X121.546 Y84.119 E.04087
G1 X123.002 Y83.838 E.04649
G1 X124.214 Y83.699 E.03825
G1 X126.304 Y83.663 E.06554
G1 X128.808 Y83.953 E.07904
G1 X131.164 Y84.579 E.07643
G1 X133.408 Y85.53 E.07642
G1 X135.496 Y86.787 E.07642
G1 X137.387 Y88.325 E.07643
G1 X139.042 Y90.115 E.07644
G1 X140.429 Y92.119 E.07642
G1 X141.52 Y94.299 E.07643
G1 X142.293 Y96.61 E.07641
G1 X142.734 Y99.007 E.07642
G1 X142.833 Y101.443 E.07644
G1 X142.588 Y103.868 E.07642
G1 X142.004 Y106.234 E.07641
G1 X141.093 Y108.495 E.07643
G1 X139.873 Y110.605 E.07642
G1 X138.423 Y112.46 E.07382
G1 X137.325 Y113.577 E.04911
G1 X135.496 Y115.059 E.07381
G1 X133.642 Y116.194 E.06816
G1 X132.225 Y116.863 E.04913
G1 X130.171 Y117.575 E.06816
G1 X128.295 Y117.976 E.06015
G1 X126.388 Y118.181 E.06014
G1 X124.214 Y118.147 E.06817
G1 X121.722 Y117.768 E.07903
G1 X119.389 Y117.059 E.07645
G1 X104.211 Y110.894 E.51365
G1 X103.425 Y110.372 E.02958
G1 X103.315 Y110.262 E.00488
G1 X102.619 Y108.581 E.05705
G1 X102.619 Y93.267 E.48016
G1 X103.292 Y91.641 E.05518
M204 S1000
;WIPE_START
M73 P1 R31
M73 Q1 S31
G1 F8640
G1 X104.211 Y90.954 E-.26494
G1 X106.36 Y90.088 E-.53506
;WIPE_END
G1 Z.6 F720
G1 X112.117 Y95.214 F10800
G1 Z.2 F720
G1 E.8 F2100
M204 S800
G1 F1200
G1 X112.203 Y95.003 E.00714
G1 X112.743 Y93.909 E.03825
G1 X113.217 Y93.106 E.02924
G1 X113.745 Y92.328 E.02948
G1 X114.437 Y91.449 E.03508
G1 X115.205 Y90.615 E.03555
G1 X115.878 Y89.98 E.02901
G1 X116.581 Y89.397 E.02864
G1 X117.54 Y88.71 E.03699
G1 X118.491 Y88.135 E.03484
G1 X119.329 Y87.706 E.02952
G1 X120.182 Y87.337 E.02914
G1 X121.335 Y86.935 E.03829
G1 X122.244 Y86.692 E.0295
G1 X123.159 Y86.509 E.02926
G1 X124.363 Y86.359 E.03804
G1 X125.21 Y86.314 E.02659
G1 X125.787 Y86.318 E.01809
G1 X126.431 Y86.336 E.0202
G1 X127.277 Y86.41 E.02663
G1 X128.475 Y86.603 E.03805
G1 X129.391 Y86.82 E.02952
G1 X130.283 Y87.093 E.02925
G1 X131.421 Y87.535 E.03828
G1 X132.26 Y87.934 E.02913
G1 X133.083 Y88.393 E.02955
G1 X134.02 Y89.005 E.03509
G1 X134.92 Y89.698 E.03562
G1 X135.616 Y90.317 E.0292
G1 X136.278 Y90.986 E.02951
G1 X137.067 Y91.911 E.03812
G1 X137.62 Y92.666 E.02934
G1 X138.127 Y93.459 E.02951
G1 X138.661 Y94.442 E.03508
G1 X139.125 Y95.479 E.03562
G1 X139.444 Y96.354 E.0292
G1 X139.709 Y97.255 E.02945
G1 X139.95 Y98.363 E.03555
G1 X140.105 Y99.474 E.03517
G1 X140.168 Y100.412 E.02948
G1 X140.171 Y101.342 E.02916
G1 X140.094 Y102.473 E.03554
G1 X139.932 Y103.583 E.03517
G1 X139.732 Y104.501 E.02946
G1 X139.475 Y105.398 E.02926
G1 X139.05 Y106.549 E.03847
G1 X138.62 Y107.486 E.03232
G1 X138.164 Y108.323 E.02989
G1 X137.65 Y109.136 E.03016
G1 X136.952 Y110.08 E.03681
G1 X136.348 Y110.784 E.02908
G1 X135.689 Y111.459 E.02958
G1 X134.842 Y112.212 E.03553
G1 X133.949 Y112.891 E.03517
G1 X133.162 Y113.405 E.02947
G1 X132.351 Y113.865 E.02923
G1 X131.249 Y114.385 E.03821
G1 X130.396 Y114.714 E.02867
G1 X129.513 Y114.992 E.02903
G1 X128.365 Y115.265 E.037
G1 X127.267 Y115.437 E.03485
G1 X126.332 Y115.516 E.02942
G1 X125.401 Y115.536 E.0292
G1 X124.27 Y115.479 E.03551
G1 X123.157 Y115.337 E.03518
G1 X122.236 Y115.152 E.02945
G1 X121.335 Y114.911 E.02924
G1 X120.182 Y114.51 E.03828
G1 X119.327 Y114.139 E.02922
G1 X118.489 Y113.71 E.02952
G1 X117.45 Y113.078 E.03813
G1 X116.689 Y112.533 E.02935
G1 X115.96 Y111.938 E.0295
G1 X115.136 Y111.161 E.03551
G1 X114.383 Y110.334 E.03507
G1 X113.805 Y109.6 E.02929
G1 X113.27 Y108.825 E.02953
G1 X112.656 Y107.775 E.03814
G1 X112.244 Y106.934 E.02936
G1 X111.884 Y106.065 E.02949
G1 X111.531 Y105.004 E.03506
G1 X111.256 Y103.901 E.03564
G1 X111.095 Y102.975 E.02947
G1 X110.993 Y102.048 E.02924
G1 X110.95 Y100.829 E.03824
G1 X110.986 Y99.9 E.02915
G1 X111.082 Y98.962 E.02956
G1 X111.278 Y97.846 E.03553
G1 X111.556 Y96.759 E.03518
G1 X111.849 Y95.876 E.02917
G1 X112.095 Y95.27 E.02051
M204 S1000
G1 X112.444 Y95.412 F10800
M204 S800
G1 F1200
G1 X112.549 Y95.151 E.00882
G1 X113.072 Y94.094 E.03698
G1 X113.538 Y93.302 E.02881
G1 X114.053 Y92.546 E.02868
G1 X114.729 Y91.688 E.03425
G1 X115.469 Y90.884 E.03426
G1 X116.124 Y90.266 E.02824
G1 X116.817 Y89.692 E.02821
G1 X117.753 Y89.02 E.03613
G1 X118.668 Y88.468 E.03351
G1 X119.485 Y88.05 E.02877
G1 X120.326 Y87.685 E.02875
G1 X121.439 Y87.297 E.03696
G1 X122.324 Y87.06 E.02873
G1 X123.226 Y86.88 E.02884
G1 X124.39 Y86.735 E.03678
G1 X125.225 Y86.691 E.02622
G1 X125.783 Y86.695 E.0175
G1 X126.403 Y86.712 E.01945
G1 X127.237 Y86.785 E.02625
G1 X128.395 Y86.971 E.03677
G1 X129.287 Y87.182 E.02874
G1 X130.166 Y87.451 E.02882
G1 X131.265 Y87.878 E.03697
G1 X132.092 Y88.272 E.02872
G1 X132.894 Y88.719 E.02879
G1 X133.807 Y89.317 E.03422
G1 X134.675 Y89.985 E.03434
G1 X135.361 Y90.595 E.02878
G1 X136.005 Y91.246 E.02871
G1 X136.767 Y92.14 E.03683
G1 X137.312 Y92.884 E.02892
G1 X137.805 Y93.656 E.02872
G1 X138.326 Y94.616 E.03425
G1 X138.773 Y95.615 E.03432
G1 X139.087 Y96.477 E.02876
G1 X139.345 Y97.355 E.02869
G1 X139.578 Y98.422 E.03424
G1 X139.729 Y99.506 E.03432
G1 X139.79 Y100.419 E.02869
G1 X139.794 Y101.337 E.02878
G1 X139.72 Y102.426 E.03422
G1 X139.563 Y103.51 E.03434
G1 X139.367 Y104.403 E.02867
G1 X139.114 Y105.287 E.02883
G1 X138.705 Y106.398 E.03712
G1 X138.286 Y107.311 E.0315
G1 X137.836 Y108.137 E.02949
G1 X137.336 Y108.928 E.02934
G1 X136.662 Y109.839 E.03553
G1 X136.066 Y110.534 E.02871
G1 X135.424 Y111.191 E.0288
G1 X134.608 Y111.916 E.03422
G1 X133.737 Y112.579 E.03432
G1 X132.971 Y113.08 E.0287
G1 X132.171 Y113.533 E.02883
G1 X131.107 Y114.036 E.0369
G1 X130.266 Y114.36 E.02826
G1 X129.406 Y114.63 E.02826
G1 X128.285 Y114.897 E.03613
G1 X127.229 Y115.062 E.03351
G1 X126.318 Y115.139 E.02867
G1 X125.4 Y115.158 E.02879
G1 X124.31 Y115.104 E.03422
G1 X123.224 Y114.966 E.03432
G1 X122.327 Y114.787 E.02868
G1 X121.439 Y114.549 E.02883
G1 X120.326 Y114.161 E.03696
G1 X119.483 Y113.795 E.02882
G1 X118.667 Y113.378 E.02873
G1 X117.664 Y112.767 E.03682
G1 X116.913 Y112.23 E.02895
G1 X116.204 Y111.65 E.02872
G1 X115.41 Y110.902 E.0342
G1 X114.675 Y110.095 E.03422
G1 X114.105 Y109.371 E.02889
G1 X113.585 Y108.616 E.02874
G1 X112.991 Y107.603 E.03682
G1 X112.585 Y106.774 E.02894
G1 X112.236 Y105.928 E.02869
G1 X111.891 Y104.892 E.03424
G1 X111.627 Y103.829 E.03434
G1 X111.469 Y102.928 E.02868
G1 X111.369 Y102.014 E.02883
G1 X111.327 Y100.836 E.03696
G1 X111.362 Y99.921 E.02871
G1 X111.456 Y99.007 E.02881
G1 X111.645 Y97.932 E.03422
G1 X111.916 Y96.871 E.03433
G1 X112.205 Y96.001 E.02874
G1 X112.421 Y95.467 E.01806
M204 S1000
G1 X112.771 Y95.609 F10800
M204 S800
G1 F1200
G1 X112.896 Y95.299 E.01048
G1 X113.4 Y94.28 E.03564
G1 X113.854 Y93.509 E.02805
G1 X114.361 Y92.763 E.02828
G1 X115.02 Y91.928 E.03335
G1 X115.732 Y91.154 E.03297
G1 X116.369 Y90.553 E.02746
G1 X117.052 Y89.986 E.02783
G1 X117.967 Y89.331 E.03528
G1 X118.846 Y88.8 E.0322
G1 X119.64 Y88.393 E.02798
G1 X120.469 Y88.034 E.02833
G1 X121.543 Y87.66 E.03566
G1 X122.416 Y87.426 E.02834
G1 X123.293 Y87.251 E.02804
G1 X124.416 Y87.111 E.03548
G1 X125.239 Y87.068 E.02584
G1 X125.778 Y87.072 E.0169
G1 X126.376 Y87.088 E.01876
G1 X127.197 Y87.16 E.02584
G1 X128.315 Y87.34 E.03551
G1 X129.182 Y87.545 E.02793
G1 X130.049 Y87.81 E.02843
G1 X131.109 Y88.222 E.03566
G1 X131.914 Y88.605 E.02795
G1 X132.705 Y89.045 E.02838
G1 X133.583 Y89.62 E.03291
G1 X134.429 Y90.271 E.03347
G1 X135.097 Y90.864 E.02801
G1 X135.732 Y91.506 E.02831
G1 X136.467 Y92.368 E.03552
G1 X136.998 Y93.092 E.02815
G1 X137.484 Y93.853 E.02831
G1 X137.991 Y94.789 E.03338
G1 X138.421 Y95.751 E.03304
G1 X138.727 Y96.589 E.02797
G1 X138.982 Y97.455 E.02831
G1 X139.208 Y98.495 E.03337
G1 X139.353 Y99.538 E.03302
G1 X139.414 Y100.438 E.02828
G1 X139.416 Y101.331 E.028
G1 X139.346 Y102.379 E.03293
G1 X139.193 Y103.436 E.03349
G1 X139 Y104.317 E.02828
G1 X138.754 Y105.177 E.02805
G1 X138.359 Y106.248 E.03579
G1 X137.951 Y107.137 E.03067
G1 X137.514 Y107.941 E.02869
G1 X137.021 Y108.721 E.02893
G1 X136.371 Y109.599 E.03425
G1 X135.791 Y110.275 E.02793
G1 X135.159 Y110.923 E.02838
G1 X134.363 Y111.63 E.03338
G1 X133.525 Y112.267 E.033
G1 X132.77 Y112.761 E.02829
G1 X131.991 Y113.201 E.02805
G1 X130.965 Y113.686 E.03558
G1 X130.147 Y114.002 E.0275
G1 X129.3 Y114.268 E.02784
G1 X128.206 Y114.528 E.03526
G1 X127.19 Y114.686 E.03224
G1 X126.304 Y114.762 E.02788
G1 X125.399 Y114.781 E.02838
G1 X124.336 Y114.728 E.03337
G1 X123.291 Y114.595 E.03303
G1 X122.419 Y114.421 E.02788
G1 X121.543 Y114.186 E.02844
G1 X120.469 Y113.812 E.03566
G1 X119.649 Y113.457 E.02802
G1 X118.845 Y113.045 E.02833
G1 X117.877 Y112.456 E.03553
G1 X117.147 Y111.934 E.02814
G1 X116.448 Y111.363 E.0283
G1 X115.674 Y110.633 E.03336
G1 X114.967 Y109.856 E.03294
G1 X114.412 Y109.152 E.02811
G1 X113.899 Y108.408 E.02834
G1 X113.327 Y107.431 E.0355
G1 X112.931 Y106.624 E.02819
G1 X112.587 Y105.79 E.02829
G1 X112.252 Y104.78 E.03336
G1 X111.997 Y103.757 E.03306
G1 X111.843 Y102.881 E.02789
G1 X111.744 Y101.98 E.02842
G1 X111.704 Y100.844 E.03564
G1 X111.738 Y99.953 E.02796
G1 X111.831 Y99.052 E.0284
G1 X112.015 Y98.004 E.03336
G1 X112.276 Y96.984 E.03301
G1 X112.557 Y96.136 E.02801
G1 X112.748 Y95.664 E.01597
M204 S1000
G1 X113.098 Y95.806 F10800
M204 S800
G1 F1200
G1 X113.243 Y95.447 E.01214
G1 X113.728 Y94.465 E.03434
G1 X114.176 Y93.706 E.02763
G1 X114.669 Y92.981 E.02749
G1 X115.302 Y92.178 E.03206
G1 X115.996 Y91.424 E.03213
G1 X116.623 Y90.831 E.02706
G1 X117.288 Y90.281 E.02706
G1 X118.168 Y89.65 E.03395
G1 X119.024 Y89.133 E.03135
G1 X119.807 Y88.732 E.02758
G1 X120.613 Y88.383 E.02754
G1 X121.648 Y88.022 E.03437
G1 X122.496 Y87.795 E.02752
G1 X123.36 Y87.622 E.02763
G1 X124.443 Y87.488 E.03422
G1 X125.253 Y87.445 E.02543
G1 X125.773 Y87.449 E.0163
G1 X126.349 Y87.464 E.01807
G1 X127.157 Y87.535 E.02543
G1 X128.235 Y87.708 E.03423
G1 X129.089 Y87.91 E.02752
G1 X129.932 Y88.168 E.02764
G1 X130.953 Y88.565 E.03435
G1 X131.746 Y88.942 E.02753
G1 X132.515 Y89.371 E.02761
G1 X133.37 Y89.932 E.03206
G1 X134.184 Y90.557 E.03218
G1 X134.842 Y91.142 E.02761
G1 X135.459 Y91.766 E.02751
G1 X136.167 Y92.597 E.03423
G1 X136.683 Y93.3 E.02734
G1 X137.162 Y94.05 E.0279
G1 X137.65 Y94.95 E.0321
G1 X138.069 Y95.886 E.03215
G1 X138.371 Y96.713 E.0276
G1 X138.618 Y97.555 E.02751
G1 X138.835 Y98.554 E.03205
G1 X138.977 Y99.571 E.0322
G1 X139.037 Y100.445 E.02747
G1 X139.039 Y101.326 E.02762
G1 X138.97 Y102.346 E.03205
G1 X138.823 Y103.362 E.03219
G1 X138.636 Y104.219 E.0275
G1 X138.393 Y105.066 E.02763
G1 X138.013 Y106.097 E.03445
G1 X137.617 Y106.962 E.02983
G1 X137.192 Y107.745 E.02793
G1 X136.713 Y108.502 E.02809
G1 X136.08 Y109.359 E.03341
G1 X135.509 Y110.025 E.02751
G1 X134.894 Y110.655 E.0276
G1 X134.129 Y111.334 E.03207
G1 X133.312 Y111.956 E.0322
G1 X132.579 Y112.436 E.02747
G1 X131.812 Y112.87 E.02763
G1 X130.823 Y113.337 E.03429
G1 X130.017 Y113.648 E.02709
G1 X129.194 Y113.906 E.02704
G1 X128.14 Y114.157 E.03397
G1 X127.151 Y114.311 E.03138
G1 X126.278 Y114.386 E.02747
G1 X125.398 Y114.404 E.0276
G1 X124.377 Y114.353 E.03205
G1 X123.359 Y114.224 E.03217
G1 X122.499 Y114.052 E.0275
G1 X121.647 Y113.824 E.02765
G1 X120.613 Y113.464 E.03433
G1 X119.805 Y113.113 E.02762
G1 X119.023 Y112.713 E.02754
G1 X118.091 Y112.145 E.03422
G1 X117.381 Y111.638 E.02735
G1 X116.692 Y111.075 E.0279
G1 X115.948 Y110.373 E.03207
G1 X115.259 Y109.618 E.03205
G1 X114.712 Y108.924 E.02771
G1 X114.214 Y108.2 E.02755
G1 X113.662 Y107.258 E.03423
G1 X113.272 Y106.464 E.02774
G1 X112.938 Y105.653 E.0275
G1 X112.616 Y104.682 E.03208
G1 X112.367 Y103.686 E.03219
G1 X112.216 Y102.822 E.0275
G1 X112.12 Y101.946 E.02763
G1 X112.081 Y100.851 E.03435
G1 X112.115 Y99.974 E.02752
G1 X112.205 Y99.098 E.02761
G1 X112.382 Y98.091 E.03206
G1 X112.636 Y97.096 E.0322
G1 X112.913 Y96.261 E.02758
G1 X113.075 Y95.862 E.0135
M204 S1000
G1 X113.424 Y96.004 F10800
M204 S800
G1 F1200
G1 X113.59 Y95.596 E.01381
G1 X114.057 Y94.65 E.03308
G1 X114.491 Y93.913 E.02682
G1 X114.977 Y93.198 E.02711
G1 X115.594 Y92.417 E.03121
G1 X116.26 Y91.693 E.03084
G1 X116.869 Y91.118 E.02626
G1 X117.523 Y90.575 E.02665
M73 Q2 S31
G1 X118.381 Y89.961 E.03308
G1 X119.202 Y89.465 E.03007
G1 X119.962 Y89.075 E.02678
G1 X120.756 Y88.732 E.02712
M73 P2 R31
G1 X121.752 Y88.385 E.03307
G1 X122.587 Y88.16 E.02711
G1 X123.427 Y87.993 E.02685
G1 X124.47 Y87.864 E.03295
G1 X125.267 Y87.821 E.02503
G1 X125.768 Y87.826 E.01571
G1 X126.321 Y87.84 E.01734
G1 X127.117 Y87.91 E.02505
G1 X128.155 Y88.077 E.03296
G1 X128.997 Y88.276 E.02713
G1 X129.815 Y88.527 E.02683
G1 X130.798 Y88.909 E.03307
G1 X131.579 Y89.28 E.02711
G1 X132.325 Y89.697 E.0268
G1 X133.158 Y90.243 E.03123
G1 X133.938 Y90.844 E.03087
G1 X134.587 Y91.42 E.02721
G1 X135.186 Y92.026 E.02672
G1 X135.867 Y92.825 E.03292
G1 X136.376 Y93.518 E.02696
G1 X136.841 Y94.247 E.02711
G1 X137.309 Y95.11 E.03078
G1 X137.717 Y96.022 E.03133
G1 X138.011 Y96.825 E.02681
G1 X138.254 Y97.654 E.02709
G1 X138.465 Y98.627 E.03122
G1 X138.602 Y99.603 E.0309
G1 X138.66 Y100.465 E.02709
G1 X138.662 Y101.32 E.02681
G1 X138.594 Y102.313 E.03121
G1 X138.453 Y103.288 E.03089
G1 X138.269 Y104.132 E.02708
G1 X138.033 Y104.955 E.02684
G1 X137.667 Y105.947 E.03315
G1 X137.283 Y106.788 E.02899
